X:69
T:John Ryan's Polka
C:Irish
M:4/4
K: D
L:1/8
"D" d2 d2 "G" BcdB | "D" A2 F2 A2 F2 | d2 d2 "G" BcdB | "D" A2 F2 "A" E2 D2 |
"D" d2 d2 "G" BcdB | "D "A2 F2 A2 (de) | f2 d2 "A" e2 c2 |1 "D" d4 (d3 A) :|2 "D" d2 (ud3 e) ||
"D" f2 d2 d2 (ef) | "G" g2 f2 "A" e2 (de) | "D" f2 d2 A2 d2 | fefg "A" a2 ({b/2}ag) |
"D" f2 d2 d2 (ef) | "G" g2 {f/2g/2}f2 "A" e2 (de) | "D" f2 d2 "A" e2 c2 |1 "D" d4 (d3 e) :|2 "D" d4 |]

